src/assets/img/icons/github.svg

<?xml version="1.0" encoding="UTF-8" standalone="no"?>
<svg width="60px" height="60px" viewBox="0 0 60 60" version="1.1" xmlns="http://www.w3.org/2000/svg" xmlns:xlink="http://www.w3.org/1999/xlink" xmlns:sketch="http://www.bohemiancoding.com/sketch/ns">
    <!-- Generator: Sketch 3.3.3 (12072) - http://www.bohemiancoding.com/sketch -->
    <title>github</title>
    <desc>Created with Sketch.</desc>
    <defs></defs>
    <g id="soical" stroke="none" stroke-width="1" fill="none" fill-rule="evenodd" sketch:type="MSPage">
        <g id="social" sketch:type="MSArtboardGroup" transform="translate(-1073.000000, -638.000000)">
            <g id="slices" sketch:type="MSLayerGroup" transform="translate(173.000000, 138.000000)"></g>
            <g id="square-flat" sketch:type="MSLayerGroup" transform="translate(173.000000, 138.000000)" fill="#424242">
                <path d="M902.995937,500 L957.004063,500 C958.658673,500 960,501.33731 960,502.995937 L960,557.004063 C960,558.658673 958.66269,560 957.004063,560 L902.995937,560 C901.341327,560 900,558.66269 900,557.004063 L900,502.995937 C900,501.341327 901.33731,500 902.995937,500 Z" id="square-60" sketch:type="MSShapeGroup"></path>
            </g>
            <g id="icon" sketch:type="MSLayerGroup" transform="translate(182.000000, 150.000000)" fill="#FFFFFF">
                <path d="M916.425274,535.516889 C916.425274,535.067173 916.409407,533.877227 916.40034,532.296831 C911.265178,533.440294 910.181705,529.758899 910.181705,529.758899 C909.3419,527.571909 908.131493,526.989719 908.131493,526.989719 C906.455284,525.81488 908.258427,525.839283 908.258427,525.839283 C910.111438,525.97292 911.08611,527.790376 911.08611,527.790376 C912.732853,530.682734 915.406401,529.848378 916.459274,529.3638 C916.627008,528.140155 917.104144,527.305798 917.631147,526.832841 C913.531857,526.355236 909.221766,524.730682 909.221766,517.477126 C909.221766,515.410989 909.941437,513.721359 911.122377,512.397777 C910.933109,511.91901 910.298439,509.994645 911.303711,507.388152 C911.303711,507.388152 912.85412,506.879172 916.37994,509.328786 C917.852149,508.909284 919.432024,508.69779 921.002833,508.690817 C922.570242,508.69779 924.148985,508.909284 925.624593,509.328786 C929.148146,506.879172 930.696289,507.388152 930.696289,507.388152 C931.703828,509.993483 931.070291,511.917848 930.87989,512.397777 C932.063096,513.721359 932.7771,515.410989 932.7771,517.477126 C932.7771,524.749274 928.460209,526.349426 924.347319,526.817735 C925.011456,527.402249 925.600793,528.557333 925.600793,530.323659 C925.600793,532.854618 925.576993,534.896351 925.576993,535.516889 C925.576993,536.023545 925.910195,536.611546 926.847467,536.426779 C934.176775,533.919061 939.461538,526.828193 939.461538,518.46836 C939.461538,508.013339 931.194958,499.538462 920.999433,499.538462 C910.805042,499.538462 902.538462,508.013339 902.538462,518.46836 C902.539595,526.830517 907.828892,533.926034 915.165,536.429103 C916.087539,536.602249 916.425274,536.017735 916.425274,535.516889 Z" id="github" sketch:type="MSShapeGroup"></path>
            </g>
        </g>
    </g>
</svg>

<?xml version="1.0" encoding="utf-8"?>
<!-- Generator: Adobe Illustrator 21.0.0, SVG Export Plug-In . SVG Version: 6.00 Build 0)  -->
<svg version="1.1" id="Layer_1" xmlns:sketch="http://www.bohemiancoding.com/sketch/ns"
	 xmlns="http://www.w3.org/2000/svg" xmlns:xlink="http://www.w3.org/1999/xlink" x="0px" y="0px" viewBox="0 0 60 60"
	 style="enable-background:new 0 0 60 60;" xml:space="preserve">
<style type="text/css">
	.st0{fill:#424242;}
	.st1{fill:#FFFFFF;}
</style>
<g id="soical" sketch:type="MSPage">
	<g id="social" transform="translate(-1073.000000, -638.000000)" sketch:type="MSArtboardGroup">
		<g id="slices" transform="translate(173.000000, 138.000000)" sketch:type="MSLayerGroup">
		</g>
		<g id="square-flat" transform="translate(173.000000, 138.000000)" sketch:type="MSLayerGroup">
			<path id="square-60" sketch:type="MSShapeGroup" class="st0" d="M903,500h54c1.7,0,3,1.3,3,3v54c0,1.7-1.3,3-3,3h-54
				c-1.7,0-3-1.3-3-3v-54C900,501.3,901.3,500,903,500z"/>
		</g>
		<g id="icon" transform="translate(182.000000, 150.000000)" sketch:type="MSLayerGroup">
			<path id="github" sketch:type="MSShapeGroup" class="st1" d="M916.4,535.5c0-0.4,0-1.6,0-3.2c-5.1,1.1-6.2-2.5-6.2-2.5
				c-0.8-2.2-2.1-2.8-2.1-2.8c-1.7-1.2,0.1-1.2,0.1-1.2c1.9,0.1,2.8,2,2.8,2c1.6,2.9,4.3,2.1,5.4,1.6c0.2-1.2,0.6-2.1,1.2-2.5
				c-4.1-0.5-8.4-2.1-8.4-9.4c0-2.1,0.7-3.8,1.9-5.1c-0.2-0.5-0.8-2.4,0.2-5c0,0,1.6-0.5,5.1,1.9c1.5-0.4,3.1-0.6,4.6-0.6
				c1.6,0,3.1,0.2,4.6,0.6c3.5-2.4,5.1-1.9,5.1-1.9c1,2.6,0.4,4.5,0.2,5c1.2,1.3,1.9,3,1.9,5.1c0,7.3-4.3,8.9-8.4,9.3
				c0.7,0.6,1.3,1.7,1.3,3.5c0,2.5,0,4.6,0,5.2c0,0.5,0.3,1.1,1.3,0.9c7.3-2.5,12.6-9.6,12.6-18c0-10.5-8.3-18.9-18.5-18.9
				c-10.2,0-18.5,8.5-18.5,18.9c0,8.4,5.3,15.5,12.6,18C916.1,536.6,916.4,536,916.4,535.5z"/>
		</g>
	</g>
</g>
</svg>
